public/icons/spoon.svg

<svg width="88" height="88" viewBox="0 0 88 88" fill="none" xmlns="http://www.w3.org/2000/svg">
<g clip-path="url(#clip0_468_13331)">
<mask id="mask0_468_13331" style="mask-type:luminance" maskUnits="userSpaceOnUse" x="0" y="0" width="88" height="88">
<path d="M88 0H0V88H88V0Z" fill="white"/>
</mask>
<g mask="url(#mask0_468_13331)">
<path d="M51.3315 25.3167C51.3755 22.8014 52.3912 20.3814 54.0595 18.5774L71.0215 4.29938C71.6815 3.72738 72.6972 3.77137 73.3132 4.38737C73.9732 5.0437 73.9732 6.10704 73.3132 6.76337L60.3625 19.714C59.5668 20.5097 59.5668 21.7857 60.3625 22.5814L66.0935 28.3087C66.8892 29.1044 68.1652 29.1044 68.9608 28.3087L81.9005 15.3617C82.5605 14.7017 83.6202 14.7017 84.2802 15.3617C84.8962 15.9777 84.9365 16.942 84.3645 17.6534L70.0902 34.6154C68.2422 36.291 65.8625 37.2994 63.3472 37.3434H58.4558C56.2082 37.3434 54.0082 38.3077 52.5121 39.987L13.4402 82.8467C11.5481 84.9184 7.97315 84.6507 5.99682 82.667C4.01315 80.6834 3.74915 77.1157 5.82082 75.2274L48.6805 36.1554C50.3562 34.6154 51.3242 32.4484 51.3242 30.208V25.3167H51.3315Z" fill="#E2E1E1"/>
<path d="M4.41619 78.1336V77.8696C4.41619 77.6899 4.46019 77.5176 4.50053 77.3819C4.50053 77.2939 4.50053 77.2022 4.58852 77.1142C4.80853 76.4139 5.20452 75.7062 5.77652 75.1746L48.6802 36.1466C48.9442 35.9229 49.1679 35.6589 49.3805 35.3912C49.5089 35.2116 49.6482 35.0429 49.7729 34.8632C49.8609 34.7349 49.9525 34.6396 49.9965 34.5112C50.3045 34.0236 50.5685 33.5432 50.7482 33.0152C51.1002 32.0912 51.2799 31.1232 51.2799 30.1479V25.2566C51.2799 24.4609 51.4082 23.6726 51.6319 22.9209C51.7162 22.6129 51.8115 22.3049 51.8959 22.0409C52.3835 20.7136 53.0839 19.5256 54.0519 18.4733L71.0212 4.21358C71.0212 4.21358 71.2009 4.08525 71.2852 4.03391C71.5089 3.90925 71.7729 3.81392 72.0405 3.81392H72.3485C72.6969 3.85792 73.0489 4.03391 73.3129 4.30158C73.9729 4.95792 73.9729 6.02125 73.3129 6.67758L60.3622 19.6282C60.0982 19.8922 59.9185 20.1599 59.8342 20.5082C59.8342 20.6366 59.7902 20.7759 59.7462 20.9042V21.2966C59.7462 21.4762 59.7902 21.6889 59.8745 21.8686C59.9625 22.1362 60.1422 22.3562 60.3219 22.5286L62.0819 24.2886L60.8499 25.3519C59.1742 27.1999 58.1659 29.5759 58.1219 32.0912V32.2196C58.1219 34.7752 56.6699 37.0706 54.4699 38.3429C54.4295 38.3429 54.3855 38.3869 54.3415 38.4272C54.3012 38.4272 54.2132 38.5152 54.1619 38.5556C54.1215 38.5556 54.0775 38.5996 54.0335 38.6436C53.9492 38.6436 53.9052 38.7279 53.8539 38.7719C53.8539 38.7719 53.7695 38.8122 53.7255 38.8562C53.6412 38.9406 53.5459 38.9846 53.4175 39.0799L53.3772 39.1202C53.2892 39.1642 53.1975 39.2486 53.1535 39.2999C53.1535 39.2999 53.1095 39.3439 53.0692 39.3879C52.9812 39.4282 52.9409 39.5162 52.8455 39.5676L52.7612 39.6519C52.6732 39.7362 52.5815 39.8316 52.4935 39.9159L21.5725 73.8399L12.6369 81.9909C12.0209 82.5629 11.6249 83.2669 11.4049 84.0186C11.0529 84.1029 10.7045 84.1982 10.3452 84.1982H9.64119C9.42119 84.1982 9.15352 84.1542 8.94085 84.1139C8.85652 84.1139 8.71719 84.0699 8.63285 84.0259C8.50452 84.0259 8.40919 83.9856 8.28086 83.9416C8.28086 83.9416 8.06085 83.8572 7.97285 83.8132H7.93252C7.84452 83.8132 7.70885 83.7289 7.62452 83.6849C7.53652 83.6409 7.40086 83.6006 7.31652 83.5052H7.22852C7.14419 83.4612 7.04886 83.4209 7.00852 83.3769H6.96452C6.88019 83.3329 6.78486 83.2486 6.70052 83.1972H6.65652C6.57219 83.1532 6.52819 83.0689 6.43652 83.0176C6.43652 83.0176 6.39252 83.0176 6.34853 82.9736C6.26419 82.8892 6.16885 82.8452 6.08452 82.7536C5.02486 81.6902 4.44919 80.1942 4.44919 78.7422V78.2106L4.41619 78.1336Z" fill="#D9D7D5"/>
<path d="M19.2564 34.2121C16.169 33.9481 13.3531 32.3201 11.5931 29.7204L7.71738 24.0408C4.54572 19.3731 3.31372 13.6934 4.23772 8.14211C4.36605 7.21811 4.85372 6.42244 5.51005 5.85044C6.17005 5.27477 7.00972 4.92644 7.93005 4.88244C13.5694 4.61844 19.0767 6.55811 23.3007 10.2541L28.5037 14.7861C30.8394 16.8578 32.1557 19.8498 32.0274 22.9371L31.7597 27.8321C31.6314 30.0798 32.4637 32.3201 34.055 33.9554L74.4507 75.4988C76.394 77.5264 75.9064 81.0501 73.8347 82.9421C71.7227 84.7864 68.155 84.8304 66.395 82.6744L29.9667 37.5231C28.555 35.7594 26.4394 34.6558 24.1477 34.5274L19.2564 34.2121Z" fill="#E2E1E1"/>
<path d="M4.23653 8.14114C4.36486 7.21715 4.85252 6.42148 5.51253 5.84948C5.77653 5.62582 6.04053 5.45715 6.3082 5.27748C6.6162 5.14915 6.92052 5.00981 7.22853 4.92548C7.45219 4.88148 7.67587 4.84115 7.88853 4.84115H8.50453H8.6842H9.12786H9.35153H9.7952H9.97486H10.5909C10.5505 9.28881 11.8229 13.6485 14.3822 17.3518L18.2542 23.0315C19.6255 25.0591 21.6495 26.5148 23.9852 27.1711C25.7489 27.6588 27.5089 28.3188 29.1442 29.1585C30.6842 29.9505 32.1802 30.6948 32.1802 30.7388V30.7828C32.1802 30.9111 32.2645 31.0028 32.3085 31.0908V31.1751C32.3085 31.2595 32.3929 31.3988 32.4369 31.4831V31.5675C32.4369 31.6555 32.5212 31.7471 32.5652 31.8351C32.5652 31.8351 32.5652 31.9195 32.6092 31.9195C32.6495 32.0038 32.6935 32.0991 32.7375 32.1835C32.7375 32.1835 32.7779 32.2715 32.8219 32.3118C32.8659 32.3998 32.9062 32.4401 32.9502 32.5355C32.9502 32.5795 32.9942 32.6198 33.0345 32.6638C33.0785 32.7481 33.1225 32.7921 33.1629 32.8875C33.1629 32.9278 33.2509 32.9718 33.2912 33.0671C33.2912 33.1075 33.3792 33.1955 33.4195 33.2468C33.4635 33.3311 33.5075 33.3751 33.5992 33.4265C33.5992 33.4265 33.6872 33.5108 33.6872 33.5548C33.7715 33.6391 33.8669 33.7748 33.9512 33.8628L74.4349 75.4905C76.3745 77.5181 75.8869 81.0418 73.8189 82.9301C71.7069 84.7781 68.1392 84.8221 66.3755 82.6661L29.9472 37.5148C28.5355 35.7511 26.4235 34.6475 24.1319 34.5191L19.2405 34.2111C16.1532 33.9471 13.3372 32.3228 11.5772 29.7195L7.70153 24.0435C4.54453 19.3721 3.31253 13.6851 4.23653 8.14114Z" fill="#D9D7D5"/>
<path d="M7.96593 5.21635C7.97693 5.21635 7.98426 5.21635 7.99525 5.21635C8.28859 5.24202 8.57092 5.24202 8.87159 5.24202C14.1259 5.24202 19.1566 7.12302 23.0396 10.5367L28.2389 15.0687C30.4829 17.0267 31.7149 19.872 31.6159 22.8714L31.3519 27.781C31.1943 30.1167 32.0559 32.4524 33.7096 34.1904L74.1933 75.807C74.9376 76.5514 75.3153 77.5964 75.3153 78.9127C75.3153 78.9127 75.3153 78.9384 75.3153 78.942C75.2603 80.328 74.6113 81.7067 73.5773 82.6307C72.6569 83.4484 71.3809 83.9177 70.0719 83.9177C69.9436 83.9177 69.8079 83.9067 69.6796 83.8993C68.4769 83.7967 67.4099 83.2687 66.6729 82.4107C66.6583 82.396 66.6473 82.3777 66.6363 82.3593L29.9403 36.8744C29.9036 36.8304 29.8816 36.7827 29.8706 36.7314C28.3819 35.1767 26.3213 34.2087 24.1873 34.0657L19.2959 33.7577C16.3113 33.5194 13.6236 31.9574 11.9113 29.4714L8.03559 23.7807C4.93359 19.1827 3.72359 13.635 4.62926 8.16436V8.15702C4.62926 8.13136 4.63293 8.10569 4.64026 8.08002C4.81626 7.31002 5.23426 6.58768 5.78059 6.10002C6.40392 5.53902 7.18493 5.22736 7.96593 5.21635ZM69.9399 84.7354C69.9729 84.7244 70.0096 84.7207 70.0463 84.7207C71.5276 84.7207 72.9906 84.1707 74.0613 83.2174C75.2346 82.154 75.9863 80.5517 76.0669 78.931C76.1073 77.4534 75.6416 76.1627 74.7176 75.1984L34.3733 33.6623C32.8846 32.1773 32.0926 30.0654 32.1989 27.8764L32.4629 22.9813C32.5876 19.7327 31.2493 16.6417 28.7926 14.5077L23.5896 9.96469C19.5599 6.42268 14.4083 4.47202 9.08793 4.47202C8.65893 4.47202 8.28492 4.48302 7.94759 4.50502C7.94392 4.50502 7.94025 4.50502 7.93658 4.50502C6.95026 4.54536 6.01526 4.91936 5.30392 5.55736L5.30025 5.56102C5.29292 5.56835 5.28926 5.57202 5.28192 5.57936C4.56326 6.19536 4.04626 7.11201 3.90326 8.03602C3.90326 8.04702 3.89959 8.05802 3.89959 8.07269C2.91325 13.7854 4.16359 19.5384 7.41959 24.2683L11.2953 29.9554C13.1066 32.621 15.9996 34.315 19.2409 34.6084L24.3083 34.9237C24.3633 34.9274 24.4219 34.9457 24.4696 34.975C26.5046 35.1547 28.3893 36.1777 29.6616 37.791L66.0459 82.9387C66.8599 83.9764 68.1029 84.6144 69.5549 84.7354H69.9399Z" fill="#1D1E1E"/>
<path d="M10.0125 84.7285C10.0345 84.7248 10.0565 84.7212 10.0785 84.7212C11.5342 84.6808 12.8322 84.1198 13.7379 83.1445L37.9232 56.5868C37.9892 56.5172 38.0259 56.4145 38.0222 56.3118C38.0222 56.2385 37.9965 56.1285 37.8939 56.0368C37.8279 55.9745 37.7325 55.9378 37.6372 55.9378C37.5272 55.9378 37.4209 55.9855 37.3402 56.0698L13.1622 82.5798C12.4069 83.4012 11.2812 83.8742 10.0712 83.8742H9.90621C8.57521 83.8742 7.21854 83.3168 6.27987 82.3892C5.34854 81.4578 4.79121 80.0462 4.79121 78.6125C4.79121 77.3768 5.23854 76.3098 6.08187 75.5215L33.2299 50.7935C33.2372 50.7862 33.2445 50.7789 33.2555 50.7715C33.3289 50.7128 33.3655 50.6395 33.3692 50.5515V50.5368C33.3802 50.4415 33.3399 50.3425 33.2592 50.2582L33.2482 50.2435C33.2409 50.2362 33.2335 50.2288 33.2262 50.2215C33.1639 50.1482 33.0722 50.1042 32.9769 50.1042C32.8779 50.1042 32.7825 50.1445 32.7055 50.2178L5.41821 75.0668C5.38887 75.0925 5.35587 75.1145 5.32287 75.1292C4.43921 76.0495 3.95521 77.2705 3.95521 78.5795V78.5942C3.91488 80.2222 4.56021 81.8648 5.68587 82.9905C6.81154 84.0758 8.41754 84.7285 9.97587 84.7285H10.0125Z" fill="#1D1E1E"/>
<path d="M50.3566 42.7402C50.4556 42.7402 50.5473 42.7182 50.6683 42.6046L52.806 40.2432C54.3056 38.6372 56.3809 37.7206 58.5076 37.7206H63.3989C65.8923 37.6802 68.3159 36.7342 70.2299 35.0549C70.2776 34.9596 70.3436 34.8679 70.4279 34.7872L84.684 17.8509C85.3843 17.0002 85.3293 15.8196 84.5593 15.0459C84.1376 14.6242 83.6573 14.4189 83.0889 14.4189C82.5389 14.4189 82.0439 14.6316 81.6186 15.0496L68.6716 27.9966C68.3599 28.3082 67.9493 28.4806 67.5129 28.4806C67.0803 28.4806 66.6696 28.3082 66.3579 27.9966L65.3753 27.0139C65.2396 26.8782 65.2396 26.6619 65.3753 26.5299L80.1886 11.7129C80.2619 11.6432 80.2986 11.5442 80.2986 11.4379C80.2986 11.3316 80.2619 11.2362 80.1886 11.1629C80.1153 11.0896 80.0126 11.0492 79.91 11.0492C79.8036 11.0492 79.7009 11.0896 79.6276 11.1629L64.8143 25.9762C64.7483 26.0422 64.6639 26.0789 64.5723 26.0789C64.4806 26.0789 64.3963 26.0422 64.3303 25.9762L62.6803 24.3262C62.5446 24.1942 62.5446 23.9779 62.6803 23.8422L77.4936 9.0289C77.6439 8.87857 77.6439 8.62557 77.4936 8.4789C77.4203 8.40557 77.3213 8.36524 77.2149 8.36524C77.1086 8.36524 77.0059 8.40557 76.9326 8.4789L62.1193 23.2922C62.0569 23.3582 61.9689 23.3912 61.8773 23.3912C61.7856 23.3912 61.7013 23.3582 61.6353 23.2922L60.6526 22.3096C60.0036 21.6606 60.0036 20.6449 60.6526 19.9959L73.6033 7.04524C73.9956 6.6529 74.2119 6.12857 74.2119 5.57491C74.2119 5.0139 74.0029 4.50424 73.6033 4.10824C73.2036 3.70857 72.6866 3.48857 72.1403 3.48857C71.6636 3.48857 71.1796 3.66457 70.7763 3.98357L53.6823 18.3679L53.6676 18.3789C52.0066 20.2489 51.0459 22.6946 50.9653 25.2722V30.1599C50.9103 32.3672 49.9899 34.4352 48.4389 35.8432L46.0996 37.9626C46.0923 37.9699 46.0849 37.9772 46.0739 37.9846C46.0006 38.0432 45.9639 38.1166 45.9603 38.2046V38.2192C45.9493 38.3146 45.9896 38.4136 46.0703 38.4979L46.0813 38.5126C46.0886 38.5199 46.0959 38.5272 46.1033 38.5346C46.1656 38.6079 46.2573 38.6519 46.3526 38.6519C46.4516 38.6519 46.5469 38.6116 46.624 38.5382L48.9633 36.4226C50.7159 34.7909 51.7243 32.5176 51.7243 30.1856V25.2832C51.7683 22.9439 52.674 20.6669 54.2763 18.8629L54.2873 18.8482L54.313 18.8226C54.3203 18.8152 54.3276 18.8079 54.3349 18.8042L71.2566 4.56657C71.4986 4.33924 71.8029 4.21457 72.1146 4.21457C72.4446 4.21457 72.7599 4.35024 73.0093 4.59957C73.5739 5.16424 73.2623 5.98557 73.1926 6.14691L73.1449 6.2459C73.1303 6.28624 73.1046 6.31924 73.0753 6.34857L60.0513 19.3762C59.5929 19.8309 59.3436 20.4396 59.3436 21.0849C59.3436 21.7266 59.5929 22.3352 60.0513 22.7899L65.8226 28.5649C66.2773 29.0196 66.8823 29.2689 67.5313 29.2689C68.1729 29.2689 68.7779 29.0196 69.2436 28.5612L82.1906 15.6142C82.5316 15.2732 82.8726 15.2329 83.1 15.2329C83.4226 15.2329 83.771 15.3796 84.0093 15.6142C84.4603 16.0799 84.3063 16.7692 84.2219 17.0442L84.1853 17.1542C84.1706 17.1946 84.1486 17.2349 84.1229 17.2679L69.8046 34.2886C69.7973 34.2959 69.7899 34.3032 69.7826 34.3106L69.7459 34.3436C68.0153 35.9276 65.7419 36.8516 63.3476 36.9506C63.3403 36.9506 58.4233 36.9506 58.4233 36.9506C56.0473 36.9506 53.7739 37.9552 52.1826 39.7116L50.0303 42.0876C49.9606 42.1609 49.924 42.2636 49.9276 42.3699C49.9313 42.4396 49.9569 42.5496 50.0596 42.6412L50.0743 42.6596C50.1439 42.7146 50.2356 42.7402 50.3566 42.7402Z" fill="#1D1E1E"/>
</g>
</g>
<defs>
<clipPath id="clip0_468_13331">
<rect width="88" height="88" fill="white" transform="matrix(-1 0 0 1 88 0)"/>
</clipPath>
</defs>
</svg>

<svg xmlns="http://www.w3.org/2000/svg" width="88" height="88" fill="none" viewBox="0 0 88 88"><g clip-path="url(#a)"><mask id="b" width="88" height="88" x="0" y="0" maskUnits="userSpaceOnUse" style="mask-type:luminance"><path fill="#fff" d="M88 0H0v88h88z"/></mask><g mask="url(#b)"><path fill="#e2e1e1" d="M51.332 25.317c.044-2.516 1.06-4.936 2.727-6.74L71.023 4.3a1.7 1.7 0 0 1 2.291.088c.66.657.66 1.72 0 2.376l-12.95 12.951a2.02 2.02 0 0 0 0 2.867l5.73 5.728a2.02 2.02 0 0 0 2.868 0L81.9 15.362c.66-.66 1.72-.66 2.38 0 .615.616.655 1.58.084 2.291L70.09 34.615c-1.848 1.676-4.228 2.684-6.743 2.728h-4.891c-2.248 0-4.448.965-5.944 2.644L13.44 82.847c-1.892 2.071-5.467 1.804-7.443-.18-1.984-1.984-2.248-5.551-.176-7.44l42.86-39.072c1.675-1.54 2.643-3.707 2.643-5.947v-4.891z"/><path fill="#d9d7d5" d="M4.416 78.134v-.264c0-.18.044-.352.085-.488 0-.088 0-.18.088-.268.22-.7.616-1.408 1.188-1.94L48.68 36.148c.264-.224.488-.488.7-.756.129-.18.268-.348.393-.528.088-.128.18-.223.223-.352.308-.487.572-.968.752-1.496a8 8 0 0 0 .532-2.867v-4.891a8.2 8.2 0 0 1 .352-2.336c.084-.308.18-.616.264-.88a10.6 10.6 0 0 1 2.156-3.568l16.97-14.26s.179-.128.263-.18c.224-.124.488-.22.755-.22h.308c.349.045.7.22.965.489.66.656.66 1.72 0 2.376l-12.95 12.95c-.265.264-.444.532-.529.88 0 .129-.044.268-.088.396v.393c0 .18.044.392.128.572.088.267.268.487.448.66l1.76 1.76-1.232 1.063c-1.676 1.848-2.684 4.224-2.728 6.74v.128c0 2.555-1.452 4.85-3.652 6.123-.04 0-.084.044-.128.084-.04 0-.129.088-.18.129-.04 0-.084.044-.129.088-.084 0-.128.084-.18.128 0 0-.084.04-.128.084-.084.085-.18.129-.308.224l-.04.04a.8.8 0 0 0-.224.18s-.044.044-.084.088c-.088.04-.128.128-.224.18l-.084.084c-.088.084-.18.18-.268.264L21.573 73.84l-8.936 8.15a4.4 4.4 0 0 0-1.232 2.029c-.352.084-.7.18-1.06.18h-.704c-.22 0-.487-.045-.7-.085a.8.8 0 0 1-.308-.088c-.128 0-.224-.04-.352-.084 0 0-.22-.085-.308-.129h-.04c-.088 0-.224-.084-.308-.128-.088-.044-.224-.084-.308-.18h-.088c-.085-.044-.18-.084-.22-.128h-.044c-.085-.044-.18-.128-.264-.18h-.044c-.085-.044-.129-.128-.22-.18 0 0-.044 0-.088-.043-.085-.085-.18-.129-.264-.22-1.06-1.064-1.636-2.56-1.636-4.012v-.531z"/><path fill="#e2e1e1" d="M19.256 34.212a10.3 10.3 0 0 1-7.663-4.492l-3.876-5.68a21.86 21.86 0 0 1-3.48-15.898c.13-.924.617-1.72 1.273-2.292a3.95 3.95 0 0 1 2.42-.968 21.8 21.8 0 0 1 15.37 5.372l5.204 4.532c2.335 2.072 3.652 5.064 3.523 8.151l-.267 4.895a8.15 8.15 0 0 0 2.295 6.123L74.451 75.5c1.943 2.027 1.455 5.551-.616 7.443-2.112 1.844-5.68 1.888-7.44-.268l-36.428-45.15a8.04 8.04 0 0 0-5.82-2.997z"/><path fill="#d9d7d5" d="M4.237 8.141c.128-.924.616-1.72 1.276-2.292.264-.223.528-.392.795-.572.308-.128.613-.267.92-.352a3.5 3.5 0 0 1 .66-.084h2.703c-.04 4.448 1.232 8.808 3.791 12.51l3.872 5.68a10.25 10.25 0 0 0 5.731 4.14 27.3 27.3 0 0 1 5.16 1.988c1.54.792 3.035 1.536 3.035 1.58v.044c0 .128.084.22.129.308v.084c0 .084.084.224.128.308v.084c0 .088.084.18.128.268 0 0 0 .084.044.084.04.085.084.18.128.265 0 0 .04.088.085.128.044.088.084.128.128.224 0 .044.044.084.084.128.044.084.089.128.129.224 0 .04.088.084.128.18 0 .04.088.128.129.179a.4.4 0 0 0 .18.18s.087.084.087.128c.085.084.18.22.264.308L74.435 75.49c1.94 2.027 1.452 5.55-.616 7.44-2.112 1.847-5.68 1.891-7.443-.265l-36.429-45.15a8.03 8.03 0 0 0-5.815-2.996l-4.892-.308a10.28 10.28 0 0 1-7.663-4.491l-3.875-5.676A21.94 21.94 0 0 1 4.237 8.14"/><path fill="#1d1e1e" d="M7.966 5.216h.03c.293.026.575.026.876.026 5.254 0 10.285 1.881 14.168 5.295l5.199 4.532a9.88 9.88 0 0 1 3.377 7.802l-.264 4.91c-.158 2.336.704 4.671 2.358 6.41l40.483 41.616c.745.744 1.122 1.79 1.122 3.106v.029a5.32 5.32 0 0 1-1.738 3.689c-.92.817-2.196 1.287-3.505 1.287-.128 0-.264-.011-.392-.019-1.203-.102-2.27-.63-3.007-1.488a.3.3 0 0 1-.037-.052L29.94 36.874a.3.3 0 0 1-.07-.143 8.75 8.75 0 0 0-5.683-2.665l-4.891-.308c-2.985-.239-5.672-1.8-7.385-4.287l-3.875-5.69A21.53 21.53 0 0 1 4.629 8.164v-.007a.3.3 0 0 1 .011-.077c.176-.77.594-1.492 1.14-1.98.624-.561 1.405-.873 2.186-.884m61.974 79.52a.3.3 0 0 1 .106-.015c1.482 0 2.945-.55 4.015-1.504 1.174-1.063 1.925-2.665 2.006-4.286.04-1.478-.425-2.768-1.35-3.733L34.374 33.662c-1.488-1.485-2.28-3.597-2.174-5.786l.264-4.895a10.64 10.64 0 0 0-3.67-8.473L23.59 9.965A21.97 21.97 0 0 0 9.088 4.472c-.43 0-.803.011-1.14.033h-.011a4.2 4.2 0 0 0-2.633 1.052l-.004.004-.018.018a4.18 4.18 0 0 0-1.379 2.457l-.003.037c-.987 5.712.264 11.465 3.52 16.195l3.875 5.687c1.812 2.666 4.705 4.36 7.946 4.653l5.067.316a.4.4 0 0 1 .162.051 7.47 7.47 0 0 1 5.192 2.816l36.384 45.148c.814 1.037 2.057 1.675 3.509 1.796z"/><path fill="#1d1e1e" d="M10.013 84.729a.4.4 0 0 1 .066-.008c1.455-.04 2.753-.601 3.659-1.577l24.185-26.557a.4.4 0 0 0 .1-.275.37.37 0 0 0-.13-.275.38.38 0 0 0-.256-.1.4.4 0 0 0-.297.133L13.162 82.58c-.755.821-1.88 1.294-3.09 1.294h-.166A5.27 5.27 0 0 1 6.28 82.39c-.931-.931-1.489-2.343-1.489-3.776 0-1.236.448-2.303 1.29-3.091l27.149-24.73q.01-.01.026-.021a.28.28 0 0 0 .113-.22v-.015a.35.35 0 0 0-.11-.279l-.01-.015-.023-.022a.33.33 0 0 0-.25-.117.4.4 0 0 0-.27.114L5.418 75.067a.4.4 0 0 1-.095.062 4.94 4.94 0 0 0-1.368 3.45v.015c-.04 1.628.605 3.27 1.73 4.397 1.127 1.085 2.733 1.737 4.29 1.737zM50.357 42.74c.099 0 .19-.022.311-.135l2.138-2.362c1.5-1.606 3.575-2.522 5.702-2.522h4.89c2.494-.04 4.918-.987 6.832-2.666a1 1 0 0 1 .198-.268l14.256-16.936c.7-.85.645-2.031-.125-2.805-.421-.422-.902-.627-1.47-.627-.55 0-1.045.213-1.47.63L68.672 27.998a1.627 1.627 0 0 1-2.314 0l-.983-.983a.34.34 0 0 1 0-.484L80.19 11.713a.37.37 0 0 0 .11-.275.38.38 0 0 0-.389-.389.4.4 0 0 0-.282.114L64.814 25.976a.34.34 0 0 1-.484 0l-1.65-1.65a.34.34 0 0 1 0-.484L77.494 9.03a.39.39 0 0 0 0-.55.4.4 0 0 0-.28-.114.4.4 0 0 0-.281.114L62.119 23.292a.33.33 0 0 1-.242.1.34.34 0 0 1-.242-.1l-.982-.982a1.62 1.62 0 0 1 0-2.314l12.95-12.95a2.07 2.07 0 0 0 .609-1.471c0-.561-.21-1.07-.609-1.467-.4-.4-.916-.62-1.463-.62-.476 0-.96.177-1.364.496L53.682 18.368l-.014.01c-1.661 1.87-2.622 4.317-2.703 6.894v4.888c-.055 2.207-.975 4.275-2.526 5.683l-2.34 2.12-.025.022a.28.28 0 0 0-.114.22v.014a.35.35 0 0 0 .11.279l.011.015.022.022a.33.33 0 0 0 .25.117.4.4 0 0 0 .271-.114l2.34-2.115c1.752-1.632 2.76-3.905 2.76-6.237v-4.903c.044-2.34.95-4.616 2.552-6.42l.011-.015.026-.025a.1.1 0 0 1 .022-.019L71.257 4.567c.242-.228.546-.352.858-.352.33 0 .645.135.894.385.565.564.253 1.386.184 1.547l-.048.099a.3.3 0 0 1-.07.103L60.051 19.376a2.4 2.4 0 0 0-.707 1.709c0 .642.249 1.25.707 1.705l5.772 5.775a2.427 2.427 0 0 0 3.421-.004L82.19 15.614c.34-.34.682-.381.909-.381.323 0 .671.147.91.381.45.466.296 1.155.212 1.43l-.037.11a.4.4 0 0 1-.062.114l-14.318 17.02-.022.023-.037.033c-1.73 1.584-4.004 2.508-6.398 2.607h-4.925a8.43 8.43 0 0 0-6.24 2.76l-2.153 2.377a.39.39 0 0 0 .03.554l.014.018q.103.081.283.08"/></g></g><defs><clipPath id="a"><path fill="#fff" d="M88 0H0v88h88z"/></clipPath></defs></svg>
